icons/op-relations-24.svg

<svg width="24" height="24" viewBox="0 0 24 24" fill="none" xmlns="http://www.w3.org/2000/svg">
<path d="M14.6385 7.05413C15.3233 6.35426 15.3233 5.22131 14.6385 4.5249C13.9536 3.82503 12.845 3.82503 12.1636 4.5249C11.4787 5.22477 11.4787 6.35773 12.1636 7.05413C12.8484 7.75054 13.9536 7.754 14.6385 7.05413Z" fill="black"/>
<path fill-rule="evenodd" clip-rule="evenodd" d="M9.6974 9.69911C9.7061 9.68329 9.71562 9.66777 9.72598 9.65262L10.9838 7.80246C11.1567 7.54608 11.5025 7.48371 11.75 7.66041C12.0009 7.83711 12.0619 8.19051 11.889 8.44343L10.6312 10.2936C10.6203 10.3097 10.6087 10.3251 10.5965 10.3397C10.9114 10.6813 11.1308 11.0926 11.24 11.5393C11.2582 11.5367 11.2767 11.5349 11.2955 11.534L13.4991 11.4474C13.8009 11.437 14.0585 11.6761 14.0721 11.9879C14.0823 12.2997 13.8483 12.5596 13.5432 12.5734L11.3395 12.66H11.3158C11.3044 12.66 11.2932 12.6597 11.282 12.659C11.2015 13.1446 10.9932 13.5974 10.6749 13.976C10.6893 13.9914 10.7031 14.0077 10.7161 14.0251L12.0519 15.8164C12.2349 16.0624 12.1909 16.4158 11.9468 16.6063C11.8417 16.6825 11.7264 16.7207 11.6111 16.7207C11.445 16.7207 11.2823 16.6444 11.1738 16.4989L9.838 14.7077C9.82562 14.691 9.81428 14.6739 9.80397 14.6564C9.44408 14.831 9.05273 14.919 8.66138 14.919C7.97993 14.919 7.29848 14.6557 6.77977 14.1256C6.278 13.6128 6 12.9303 6 12.2027C6 11.4786 6.278 10.796 6.77977 10.2798C7.56787 9.4744 8.72968 9.28083 9.6974 9.69911ZM8.66138 10.7441C8.29523 10.7441 7.92908 10.8861 7.65107 11.1702C7.38324 11.4439 7.23407 11.8112 7.23407 12.2027C7.23407 12.5907 7.38324 12.958 7.65107 13.2352C7.91891 13.5089 8.27828 13.6613 8.66138 13.6613C9.04449 13.6613 9.40047 13.5089 9.67169 13.2352C9.93952 12.9615 10.0887 12.5942 10.0887 12.2027C10.0887 11.8147 9.93952 11.4474 9.67169 11.1702C9.3903 10.8861 9.02753 10.7441 8.66138 10.7441Z" fill="black"/>
<path d="M17.4864 10.6747C18.1712 11.3712 18.1712 12.5041 17.4864 13.204C16.8015 13.9039 15.6929 13.9039 15.0115 13.204C14.3266 12.5076 14.3266 11.3746 15.0115 10.6747C15.6929 9.97487 16.8015 9.97487 17.4864 10.6747Z" fill="black"/>
<path d="M14.7062 16.9459C15.3911 17.6423 15.3911 18.7752 14.7062 19.4751C14.0214 20.175 12.9128 20.175 12.2313 19.4751C11.5465 18.7787 11.5499 17.6457 12.2313 16.9459C12.9128 16.246 14.0214 16.246 14.7062 16.9459Z" fill="black"/>
</svg>

<svg xmlns="http://www.w3.org/2000/svg" width="24" height="24" viewBox="0 0 24 24"><path d="M14.639 7.054c.684-.7.684-1.833 0-2.529-.685-.7-1.794-.7-2.475 0a1.813 1.813 0 0 0 0 2.529c.684.697 1.79.7 2.475 0ZM9.697 9.699a.715.715 0 0 1 .029-.046l1.258-1.851a.544.544 0 0 1 .766-.142.57.57 0 0 1 .139.783l-1.258 1.851a.78.78 0 0 1-.034.046c.314.341.534.753.643 1.199l.055-.005 2.204-.087a.56.56 0 0 1 .573.541.559.559 0 0 1-.529.585l-2.203.087h-.024l-.034-.001a2.745 2.745 0 0 1-.607 1.317.664.664 0 0 1 .041.049l1.336 1.791c.183.246.139.6-.105.79a.544.544 0 0 1-.773-.107l-1.336-1.791c-.012-.017-.024-.034-.034-.052a2.62 2.62 0 0 1-3.024-.53A2.733 2.733 0 0 1 6 12.203c0-.724.278-1.407.78-1.923a2.618 2.618 0 0 1 2.917-.581Zm-1.036 1.045c-.366 0-.732.142-1.01.426a1.468 1.468 0 0 0-.417 1.033c0 .388.149.755.417 1.032a1.413 1.413 0 0 0 2.021 0c.268-.273.417-.641.417-1.032a1.48 1.48 0 0 0-.417-1.033 1.416 1.416 0 0 0-1.011-.426Zm8.825-.069a1.813 1.813 0 0 1 0 2.529c-.684.7-1.793.7-2.475 0a1.815 1.815 0 0 1 0-2.529c.682-.7 1.791-.7 2.475 0Zm-2.78 6.271a1.813 1.813 0 0 1 0 2.529c-.685.7-1.793.7-2.475 0a1.817 1.817 0 0 1 0-2.529c.682-.7 1.79-.7 2.475 0Z"/></svg>
